!!!COM: Beethoven
!!!OTL: 32 Variationen fur das pianoforte
!!!Variation: Variation 13 a
**function	**harm	**kern	**kern
*	*	*clefG2	*clefG2
*	*	*k[]	*k[]
*M3/4	*M3/4	*M3/4	*M3/4
*C:	*C:	*C:	*C:
8.T	8.I	8.r	16gLL
.	.	.	16a
.	.	.	16bJJ
=105	=105	=105	=105
2.T	2.I	4r	16ccLL
.	.	.	16g
.	.	.	16cc
.	.	.	16ddJJ
.	.	(4..c	16eeLL
.	.	.	16dd
.	.	.	16cc
.	.	.	16bJJ
.	.	.	16ccLL
.	.	.	16g
.	.	.	16ee
.	.	16e)	16ccJJ
=106	=106	=106	=106
2.T	2.V	(4d	16bLL
.	.	.	16a
.	.	.	16b
.	.	.	16ccJJ
.	.	4..G	16ddLL
.	.	.	16cc
.	.	.	16b
.	.	.	16aJJ
.	.	.	16gLL
.	.	.	16a
.	.	.	16b
.	.	16d)	16gJJ
=107	=107	=107	=107
2.T	2.viioD7b/ii	4e	16cc#LL
.	.	.	16b-
.	.	.	16cc#
.	.	.	16eeJJ
.	.	(4..e	16ggLL
.	.	.	16ee
.	.	.	16bb-
.	.	.	16ggJJ
.	.	.	16bb-LL
.	.	.	16gg
.	.	.	16ee
.	.	16g)	16cc#JJ
=108	=108	=108	=108
4T	4viioD7b/ii	4e	16bb-LL
.	.	.	16gg
.	.	.	16ee
.	.	.	16cc#JJ
2T	2iib	4..f	16aaLL
.	.	.	16ff
.	.	.	16dd
.	.	.	16aJJ
.	.	.	16aaLL
.	.	.	16dd
.	.	.	16bb
.	.	16f	16ddJJ
=109	=109	=109	=109
4T	4viioD7b/iii	4f#	16cccLL
.	.	.	16aa
.	.	.	16ff#
.	.	.	16dd#JJ
2T	2V7c/iii	4..f#	16bbLL
.	.	.	16aa
.	.	.	16ff#
.	.	.	16dd#JJ
.	.	.	16bbLL
.	.	.	16aa
.	.	.	16ff#
.	.	16f#	16dd#JJ
=110	=110	=110	=110
4T	4iiib	4g	16bbLL
.	.	.	16ee
.	.	.	16bb-
.	.	.	16ddJJ
2T	2V/ii	[2a	16cc#LL
.	.	.	16ee
.	.	.	16ff
.	.	.	16ggJJ
.	.	.	16aaLL
.	.	.	16cc#
.	.	.	16dd
.	.	.	16eeJJ
=111	=111	=111	=111
4P	4iic	8.aL]	16ffLL
.	.	.	16gg
.	.	.	16aa
.	.	16aJk	16ffJJ
4P	4iib	(4f	16eeLL
.	.	.	16dd
.	.	.	16ff
.	.	.	16aJJ
4D	4V	4g	16ccLL
.	.	.	16b
.	.	.	16dd
.	.	.	16bJJ
=112	=112	=112	=112
2.T	2.I	4c)	16ccLL
.	.	.	16g
.	.	.	16a
.	.	.	16gJJ
.	.	4r	16aLL
.	.	.	16g
.	.	.	16a
.	.	.	16bJJ
.	.	4r	16ccLL
.	.	.	16g 16b
.	.	.	16a 16cc
.	.	.	16bJJ 16dd
*-	*-	*-	*-
